X: 795
T: Xin shanxi
%%abc-version 2.0
%%abcx-abcm2ps-target-version 5.9.1 (29 Sep 2008)
%%abc-creator hum2abc beta
%%abcx-conversion-date 2013/10/02 07:52:31
%%abc-edited-by Helmut Schaffrath
%%humdrum-veritas 4092302350
%%humdrum-veritas-data 3915894000
%%continueall 1
%%barnumbers 0
L: 1/8
M: 2/4
K: C
c e d e [I:setbarnb 1]| 
c e d e | 
c B A c | 
A EG2 | 
G G G e | 
d e c B | 
A G G D | 
C4 |]  



